X: 407
T:The Fern Glade - Harmony
M:4/4
L:1/8
Q:q
C:Sean Kenan (30 Dec 1985) Australia
R:Reel
O:Australia
Z:Alex Burke Canberra 2001
K:G
"G"~B3 G "D" FGAF | "C" E ~G3 "Em"EDEG | "G" B ~G3 AGBA |"D" FADA (3(D
EF) AF |
"G"EABG "D"FGAF | "C" B, ~E3 "Em" EDEG |"G"(3(BAG) ED "Em" EGGA
|1"G" BGAB "C" G2 FA:||2 "G" BGAB "C" G2 Bd||
"Em" gega "G" ~b2 ab |"Em" geBg "G" eBge| "D" ~d3  A "G" BAGF | "C" GFGA
"D" F2
EF|
"G" G ~B3  "D" dcAd | "G" gdBG "Em" E ~G3 | "G"(3(BAG)  ED "Em" EGG
A| "G" BGAB "C" e2 Bd :||

